X: 0221
T: the Lads of Saltcoats - 8x32R
P: Kenneth H Young
C: Nan Main
B: Miss Milligan's Miscellany v.2 #0221
B: Originally Ours v.1 p.182 #MMM-0221
Z: 2019 John Chambers <jc:trillian.mit.edu>
M: 4/4
L: 1/8
R: reel
K: D
%
g |:\
"D"fddA "A/D"d3g | "D"fdfa "E/A7"bgeg |\
"D"fddA "A/D"d3A | "G"Bcde "D"fddg || "D"fddA "A/D"d3g |
"D"fdfa "E/A7"bgeg | "D"fddA "A/D"d3A | "E/A7"Bcde "D"fdda |]\
"D"fdfa "A7"d'2ag | "D"fdfa "E/A7"geeg | "D"fdfa "G/A7"d'bag |
"Bm"fa"A7"eg "D"fdda ||\
"D"fdfa "G"b2ag | "D"fdfa "G/A7"bgea |\
"D"d'c'ba "G"bagf |[1 "A7"efga "D"fddG :|[2 "A7"efga "D"fdd2 |]
